X:1
T:Himno Nacional de la República Bolivariana de Venezuela
T:Gloria al Bravo Pueblo
T:Vicente Salias Arreglo Coral Juan Bautista Plaza
T:Juan José Landaeta
T:Himno Nacional de la República Bolivariana de Venezuela
C:Vicente Salias
Z:Juan José Landaeta
%%score [ 1 2 3 ( 4 5 ) ]
L:1/8
Q:1/4=84
M:2/4
K:A
V:1 treble nm="Soprano" snm="S."
V:2 treble nm="Alto" snm="A."
V:3 treble-8 nm="Tenor" snm="T."
V:4 bass nm="Bass" snm="B."
V:5 bass 
V:1
"^Allegro marcial ( - 92)"!ff! e e e e | e2 c c | d2 B B | B2 z B | d2 B3/2 B/ | c2 A2 | B B G G | %7
 A2 z2 | e e e e | e2 c c | (de) f d | B2 z B | f2 d3/2 d/ | e2 c2 | d d B B | A2 z z/!fine! || %16
 z/ | z4 | z2!ff! z z/"^Todos" c/ | c2 A z/ A/ | A2 E2 | z4 | z4 |"^Todos" E G B G | E2 z!p! E | %25
 E2 F G | B2 A2 | E E F G | A2 z2 |!mf! A B A B | A2 d2 | A B A =G | F2 z F | d2 c3/2 c/ | B2 B2 | %35
 B A !courtesy!^G F | E2 z2 |!f! B c d ^d | e2 c2 |!mf! A B c A | G2 F2 | d c B A | G2 z2 | %43
 E G B d | c2 A2 |"^rit"!<(! B B G G | !fermata!A4!<)! |!ff!"^a tempo" B c d ^d | e2 c2 | %49
 B d E (F/G/) | A2 z2!D.C.! |] %51
V:2
!ff! A A G G | A2 A E | F2 F F | E2 z E | G2 B3/2 B/ | A2 E2 | F F E E | E2 z2 | A A G G | A2 A A | %10
 A2 A F | E2 z E | G2 G3/2 G/ | A2 A2 | F F E D | C2 z z/ || z/ | z4 | z2!ff! z z/"^Todos" c/ | %19
 c2 A z/ A/ | A2 E2 | z4 | z4 |"^Todos" E G B G | E2 z!p! E | E2 E E | E2 E2 | E E E E | E2 z2 | %29
!mf! =G G G G | F2 F2 | C C C C | D2 z D | F2 F3/2 F/ | F2 F2 | F F ^D D | E2 z2 |!f! G A B ^B | %38
 c2 A2 |!mf! E E E E | D2 D2 | F F F F | E2 z2 | E E G B | A2 E2 |"^rit"!<(! F F E E | %46
 !fermata!^D4!<)! |!ff!"^a tempo" E E E E | E2 A2 | F F E D | C2 z2 |] %51
V:3
!ff! c c d d | e2 e c | B2 B A | G2 z G | B2 e3/2 d/ | c2 c2 | B B B B | c2 z2 | c c d d | e2 e e | %10
 (dc) B A | G2 z B | d2 B3/2 B/ | c2 A2 | B B G G | A2 z z/ ||"^Solo" c/ | c2 A z/ A/ | A2 E2 | %19
 z4 | z2 z z/"^Solo" d/ | d2 B3/2 B/ | B2 z2 |"^Todos" E G B G | E2 z!p! E | G2 A B | E2 E2 | %27
 G G A B | c2 z2 |!mf! e e c c | d2 A2 | A =G F E | D2 z F | B2 ^A3/2 A/ | B2 B2 | B B B A | %36
 G2 z2 |!f! B c d ^d | e2 c2 |!mf! A A A A | B2 B2 | f e d c | B2 z2 | e e d B | c2 c2 | %45
"^rit"!<(! B B B B | !fermata!A4!<)! |!ff!"^a tempo" G A B ^B | c2 e2 | B B G B | A2 z2 |] %51
V:4
!ff! A, A, B, B, | C2 A, A, | D,2 D, D, | E,2 z E, | E,2 F,3/2 G,/ | A,2 C,2 | D, D, E, E, | %7
 A,,2 z2 | A, A, B, B, | C2 A, =G, | (F,E,) D, D, | E,2 z E, | E,2 E,3/2 D,/ | C,2 F,2 | %14
 D, D, E, E, | E,2 z z/ || z/ | z4 | z2!ff! z z/"^Todos" C/ | C2 A, z/ A,/ | A,2 E,2 | z4 | z4 | %23
"^Todos" E, G, B, G, | E,2 z!p! E, | E,2 D, D, | C,2 C,2 | E, D, C, B,, | A,,2 z2 |!mf! C C A, A, | %30
 D2 D,2 | E, E, A,, A,, | D,2 z C, | B,,2 C,3/2 C,/ | D,2 D,2 | D, D, B,, B,, | E,2 z2 | %37
!f! E, A, B, ^B, | C2 A,2 |!mf! C, C, C, C, | D,2 D,2 | B,, C, D, ^D, | E,2 z2 | E, D B, G, | %44
 A,2 C,2 |"^rit" D, D, E, E, | !fermata!=F,4 |!ff!"^a tempo" E, E, D, D, | C,2 A,,2 | D, D, E, E, | %50
 A,,2 z2 |] %51
V:5
 x4 | x4 | x4 | x4 | x4 | x4 | x4 | x4 | x4 | x4 | x4 | x4 | x4 | x4 | x4 | A,,2 x3/2 || x/ | x4 | %18
 x4 | x4 | x4 | x4 | x4 | x4 | x4 | x4 | x4 | x4 | x4 | x4 | x4 | x4 | x4 | x4 | x4 | x4 | x4 | %37
 x4 | x4 | x4 | x4 | x4 | x4 | x4 | x4 | x4 | x4 | x4 | x4 | x4 | x4 |] %51

